X:1
T:Lord Elcho
T:Lord Elcho
T:Robert Mackintosh
C:Robert Mackintosh
L:1/8
Q:1/8=232
M:4/4
K:G
V:1 treble 
V:1
|: d | g2 dB cg ec | Bg dB cB FD | g2 dB cg ec | Bd Ac BG Gd | g2 dB cg ec | Bg dB cB FD | %7
 g2 dB cg ec | Bd Ac BG Gc | Bd GB eg ce | Bd GB AD Dc | Bd GB eg ce | dB cA BG Gc | Bd GB eg ce | %14
 Bd GB FA DC | B,D GD EG ce | dB cA BGG :| %17

